X: 1
T: Devoj\vce, devoj\vce
M: 2.3.2.2/8
L: 1/8
K: Gmix
"Vocal:"\
|: "G"de fed cB AG |1 "G"Bc "D"dec "G"d2 g2 :|2,4 "G"Bc "D"dec "G"d2 d2 :|
|: gg g2e fe d2 |1,3 de fed e2 e2 :|2,4 de feg d2 d2 :|
"Instr:"\
|: de fed cB AG | Bc dec d2 d2 :|
